images/step3.svg

<svg width="32" height="32" viewBox="0 0 32 32" fill="none" xmlns="http://www.w3.org/2000/svg">
<path fill-rule="evenodd" clip-rule="evenodd" d="M19.125 3H12.875C12.5298 3 12.25 3.27979 12.25 3.625V4.875C12.25 5.22022 12.5298 5.5 12.875 5.49995H19.1251C19.4701 5.49995 19.7501 5.22012 19.7501 4.8749V3.625C19.7501 3.27979 19.4701 3 19.125 3ZM14.8262 16.75C15.0616 16.7501 15.2539 16.7502 15.5 16.7499H14.3593C14.5415 16.7499 14.691 16.75 14.8262 16.75ZM17.8606 16.7499H17.139C17.3786 16.7502 17.4599 16.7501 17.5723 16.75C17.6417 16.75 17.7229 16.7499 17.8606 16.7499Z" fill="#2161AB"/>
<path d="M25.375 4.24956H21V4.87456C20.9988 5.90972 20.16 6.74859 19.125 6.74971H12.875C11.8399 6.74854 11.0011 5.90972 10.9999 4.87456V4.24956H6.62505C6.27979 4.24956 6 4.52954 6 4.87456V27.3747C6 27.7199 6.27979 27.9997 6.625 27.9997H25.375C25.7203 27.9997 26.0001 27.7199 26.0001 27.3747V4.87451C26.0001 4.52949 25.72 4.24956 25.375 4.24956ZM14.0559 14.5521C13.6986 14.1134 13.5025 13.5655 13.5002 12.9997C13.5002 11.6189 14.6193 10.4996 16.0001 10.4996C17.3808 10.4996 18.5001 11.6189 18.5001 12.9997C18.4976 13.5655 18.3014 14.1133 17.9442 14.5521C19.0429 15.0628 19.7467 16.1632 19.7502 17.3748C19.7502 17.7198 19.4704 17.9996 19.1251 17.9996H12.8751C12.53 17.9996 12.2501 17.7198 12.2501 17.3748C12.2535 16.1632 12.9573 15.0629 14.0559 14.5521ZM21.625 24.2496H10.3751C10.0299 24.2496 9.75005 23.9698 9.75005 23.6246C9.75005 23.2796 10.0298 22.9998 10.3751 22.9998H21.625C21.9702 22.9998 22.25 23.2796 22.25 23.6246C22.25 23.9698 21.9702 24.2496 21.625 24.2496ZM21.625 21.7497H10.3751C10.0299 21.7497 9.75005 21.4699 9.75005 21.1247C9.75005 20.7796 10.0298 20.4996 10.3751 20.4996H21.625C21.9702 20.4996 22.25 20.7796 22.25 21.1246C22.25 21.4698 21.9702 21.7497 21.625 21.7497Z" fill="#2161AB"/>
</svg>

<svg width="32" height="32" fill="none" xmlns="http://www.w3.org/2000/svg"><path fill-rule="evenodd" clip-rule="evenodd" d="M19.125 3h-6.25a.625.625 0 00-.625.625v1.25c0 .345.28.625.625.625h6.25c.345 0 .625-.28.625-.625v-1.25A.625.625 0 0019.125 3zm-4.299 13.75h.674-1.14.466zm3.035 0h-.722.722z" fill="#2161AB"/><path d="M25.375 4.25H21v.625a1.877 1.877 0 01-1.875 1.875h-6.25A1.877 1.877 0 0111 4.875V4.25H6.625A.625.625 0 006 4.875v22.5c0 .345.28.625.625.625h18.75c.345 0 .625-.28.625-.625v-22.5a.625.625 0 00-.625-.625zm-11.32 10.302A2.474 2.474 0 0113.5 13a2.5 2.5 0 115 0 2.476 2.476 0 01-.556 1.552 3.122 3.122 0 011.806 2.823c0 .345-.28.625-.625.625h-6.25a.625.625 0 01-.625-.625 3.122 3.122 0 011.806-2.823zm7.57 9.698h-11.25a.625.625 0 110-1.25h11.25a.625.625 0 110 1.25zm0-2.5h-11.25a.625.625 0 110-1.25h11.25a.625.625 0 010 1.25z" fill="#2161AB"/></svg>
